X:2123
T:Gallowglass, The
O:england
C:Traditional
S:Dan Beimborn
H:submitted by Dan Beimborn to '94 Great IRTRAD Milwaukee Tune Swap
N:The mode of this tune is difficult to decide. I ended up going with A Do
N:an because the first 2 chords seem to be Amin and G.
M:6/8
L:1/8
K:ADor
AB|cBA eBd|cAA ABc|BAG efg|BGG GAB|
cBA eBd|cea e2d|cBA ^GAB|cAA A:|
ea|aga e=fd|cAA ABc|BAG efg|BGG G2e|
aga e=fd|cAA e2d|cBA ^GAB|cAA A2e|
aga e=fd|cAA ABc|BAG e^fg|BGG G2e|
aeg fdB|ecA BGE|ABc dBe|cAA A2||


